X:169
T:Shalom Aleichim
O:klezmer
M:2/4
L:1/8
Q:1/4=120
K:Am
V:1
"Am" e4 |c3 B|B A3 |zA ce |
"Dm" a4 |f3 e|e d3 |zd ef |
"E" e2 B2 |e3 d|"Am" d c3 |zc BA |
"E" .e2 .e2 |"E7" .e2 .e2 |ed cB |"Am" A.E .A.c :|





